storage/app/icons/phosphoricons/duotone/corners-in-duotone.svg

<svg xmlns="http://www.w3.org/2000/svg" fill="currentColor" viewBox="0 0 256 256"><path d="M208 64v128a16 16 0 0 1-16 16H64a16 16 0 0 1-16-16V64a16 16 0 0 1 16-16h128a16 16 0 0 1 16 16" opacity=".2"/><path d="M152 96V48a8 8 0 0 1 16 0v40h40a8 8 0 0 1 0 16h-48a8 8 0 0 1-8-8m-56 56H48a8 8 0 0 0 0 16h40v40a8 8 0 0 0 16 0v-48a8 8 0 0 0-8-8m112 0h-48a8 8 0 0 0-8 8v48a8 8 0 0 0 16 0v-40h40a8 8 0 0 0 0-16M96 40a8 8 0 0 0-8 8v40H48a8 8 0 0 0 0 16h48a8 8 0 0 0 8-8V48a8 8 0 0 0-8-8"/></svg>

<svg xmlns="http://www.w3.org/2000/svg" viewBox="0 0 256 256" fill="currentColor"><path d="M208,64V192a16,16,0,0,1-16,16H64a16,16,0,0,1-16-16V64A16,16,0,0,1,64,48H192A16,16,0,0,1,208,64Z" opacity="0.2"/><path d="M152,96V48a8,8,0,0,1,16,0V88h40a8,8,0,0,1,0,16H160A8,8,0,0,1,152,96ZM96,152H48a8,8,0,0,0,0,16H88v40a8,8,0,0,0,16,0V160A8,8,0,0,0,96,152Zm112,0H160a8,8,0,0,0-8,8v48a8,8,0,0,0,16,0V168h40a8,8,0,0,0,0-16ZM96,40a8,8,0,0,0-8,8V88H48a8,8,0,0,0,0,16H96a8,8,0,0,0,8-8V48A8,8,0,0,0,96,40Z"/></svg>
